X:559
T:Polska efter Olof Nordblad
T:(SvL Hälsingland 559)
R:Polska
O:Norrala, Hälsingland
B:Svenska Låtar Hälsingland, nr 559
S:Olof Nordblad
Z:Till abc Jonas Brunskog
M:3/4
L:1/8
K:F
vc/d/c/B/ Ac fe|(dc) B4|B(B/A/) G(G/F/) E/G/A/=B/|c2 C4|
cc/B/ Ac fe|dd/c/ Bg bg|g(e/g/) bg f/e/d/c/|f2 f4:|
cc d/c/B/c/ dB|[FB]2 [FA]4|[CG]2 [CG]2 [cE]2|cB c/B/A/B/ A2|[cE]2 [cE]2 dB|[BF]2 [AF]4|
[CG]2 [CG]2 [cE]E|F4 A2|cc/B/ Ac fe|dd/c/ Bg bg|eg bg f/e/d/c/|(cf) f4:|

